X: 2
T: Langstrom's Pony
R: jig
M: 6/8
L: 1/8
K: Amix
|:fed cAA|EAA cBA|fed cAA|BGB dcB|fed cAA|EAA cBA|faf g2e|dBG Bcd:||:cee dff|cee ecA|cee dff|dBG Bcd|cee dff|cee efg|faf g2e|dBG Bcd:||:Ace a^ga|ecA ecA|GBd gfg|dBG Bcd|faf g2e|fed ecA|a2f g2e|dBG Bcd:||:AEA A2e|cAc ecB|AEA AB=c|BGB dcB|AEA A2e|cAc efg|faf g2e|dBG Bcd:|


Tune 61	Setting 61

